logos/allen-institute-brain-science.svg

<?xml version="1.0" encoding="UTF-8"?>
<!DOCTYPE svg PUBLIC "-//W3C//DTD SVG 1.1//EN" "http://www.w3.org/Graphics/SVG/1.1/DTD/svg11.dtd">
<svg xmlns="http://www.w3.org/2000/svg" version="1.1" width="200px" height="200px" style="shape-rendering:geometricPrecision; text-rendering:geometricPrecision; image-rendering:optimizeQuality; fill-rule:evenodd; clip-rule:evenodd" xmlns:xlink="http://www.w3.org/1999/xlink">
<g><path style="opacity:1" fill="#fefefe" d="M -0.5,-0.5 C 66.1667,-0.5 132.833,-0.5 199.5,-0.5C 199.5,66.1667 199.5,132.833 199.5,199.5C 132.833,199.5 66.1667,199.5 -0.5,199.5C -0.5,132.833 -0.5,66.1667 -0.5,-0.5 Z"/></g>
<g><path style="opacity:1" fill="#63a6cd" d="M 125.5,53.5 C 125.5,53.8333 125.5,54.1667 125.5,54.5C 120.677,60.1466 116.343,66.1466 112.5,72.5C 116.757,48.692 108.757,30.3587 88.5,17.5C 93.6013,15.0746 98.9346,14.2412 104.5,15C 116.069,25.3014 123.069,38.1348 125.5,53.5 Z"/></g>
<g><path style="opacity:1" fill="#867ca3" d="M 123.5,77.5 C 125.138,69.9353 125.805,62.2686 125.5,54.5C 125.5,54.1667 125.5,53.8333 125.5,53.5C 134.798,43.8429 145.798,36.6762 158.5,32C 160.5,31.3333 162.5,31.3333 164.5,32C 167.312,34.9015 170.312,37.5681 173.5,40C 150.671,44.5523 134.004,57.0523 123.5,77.5 Z"/></g>
<g><path style="opacity:1" fill="#335184" d="M 125.5,54.5 C 125.805,62.2686 125.138,69.9353 123.5,77.5C 122.165,81.1715 120.832,84.8382 119.5,88.5C 115.973,95.0352 111.64,101.035 106.5,106.5C 106.167,106.5 105.833,106.5 105.5,106.5C 105.632,99.0403 106.632,91.707 108.5,84.5C 110.031,80.5738 111.364,76.5738 112.5,72.5C 116.343,66.1466 120.677,60.1466 125.5,54.5 Z"/></g>
<g><path style="opacity:1" fill="#61a5cb" d="M 108.5,84.5 C 106.632,91.707 105.632,99.0403 105.5,106.5C 103.445,108.555 101.112,110.221 98.5,111.5C 91.257,109.968 83.9237,109.302 76.5,109.5C 90.5041,105.491 101.171,97.158 108.5,84.5 Z"/></g>
<g><path style="opacity:1" fill="#847ba2" d="M 119.5,88.5 C 116.623,102.339 117.289,116.006 121.5,129.5C 117.417,124.082 112.417,119.749 106.5,116.5C 106.5,116.167 106.5,115.833 106.5,115.5C 106.5,112.5 106.5,109.5 106.5,106.5C 111.64,101.035 115.973,95.0352 119.5,88.5 Z"/></g>
<g><path style="opacity:1" fill="#62a6cd" d="M 68.5,110.5 C 62.2446,113.296 56.2446,116.629 50.5,120.5C 41.7052,118.848 33.8719,115.181 27,109.5C 26.3333,104.167 26.3333,98.8333 27,93.5C 38.0455,105.938 51.8789,111.605 68.5,110.5 Z"/></g>
<g><path style="opacity:1" fill="#eceef0" d="M 105.5,106.5 C 105.833,106.5 106.167,106.5 106.5,106.5C 106.5,109.5 106.5,112.5 106.5,115.5C 103.833,114.5 101.167,113.5 98.5,112.5C 98.5,112.167 98.5,111.833 98.5,111.5C 101.112,110.221 103.445,108.555 105.5,106.5 Z"/></g>
<g><path style="opacity:1" fill="#2c6934" d="M 76.5,109.5 C 83.9237,109.302 91.257,109.968 98.5,111.5C 98.5,111.833 98.5,112.167 98.5,112.5C 92.9157,115.46 87.2491,118.127 81.5,120.5C 77.4432,120.848 73.4432,121.514 69.5,122.5C 63.143,122.524 56.8097,122.19 50.5,121.5C 50.5,121.167 50.5,120.833 50.5,120.5C 56.2446,116.629 62.2446,113.296 68.5,110.5C 71.2062,110.425 73.8728,110.092 76.5,109.5 Z"/></g>
<g><path style="opacity:1" fill="#759f43" d="M 98.5,112.5 C 101.167,113.5 103.833,114.5 106.5,115.5C 106.5,115.833 106.5,116.167 106.5,116.5C 107.698,122.958 109.364,129.291 111.5,135.5C 103.671,126.252 93.6705,121.252 81.5,120.5C 87.2491,118.127 92.9157,115.46 98.5,112.5 Z"/></g>
<g><path style="opacity:1" fill="#3d4e2b" d="M 106.5,116.5 C 112.417,119.749 117.417,124.082 121.5,129.5C 123.5,133.5 125.5,137.5 127.5,141.5C 129.133,148.051 129.799,154.717 129.5,161.5C 124.793,156.795 120.46,151.795 116.5,146.5C 115.105,142.71 113.438,139.043 111.5,135.5C 109.364,129.291 107.698,122.958 106.5,116.5 Z"/></g>
<g><path style="opacity:1" fill="#76a143" d="M 50.5,121.5 C 56.8097,122.19 63.143,122.524 69.5,122.5C 56.2593,128.593 48.426,138.926 46,153.5C 42.1572,149.811 39.3239,145.478 37.5,140.5C 39.904,132.777 44.2373,126.444 50.5,121.5 Z"/></g>
<g><path style="opacity:1" fill="#867ca3" d="M 127.5,141.5 C 135.898,153.726 146.898,162.893 160.5,169C 157.056,171.807 153.223,173.973 149,175.5C 141.886,172.031 135.386,167.697 129.5,162.5C 129.5,162.167 129.5,161.833 129.5,161.5C 129.799,154.717 129.133,148.051 127.5,141.5 Z"/></g>
<g><path style="opacity:1" fill="#76a144" d="M 116.5,146.5 C 120.46,151.795 124.793,156.795 129.5,161.5C 129.5,161.833 129.5,162.167 129.5,162.5C 128.151,170.386 125.151,177.553 120.5,184C 115.5,184.667 110.5,184.667 105.5,184C 116.272,173.676 119.938,161.176 116.5,146.5 Z"/></g>
</svg>

<svg xmlns="http://www.w3.org/2000/svg" width="200" height="200" style="shape-rendering:geometricPrecision;text-rendering:geometricPrecision;image-rendering:optimizeQuality;fill-rule:evenodd;clip-rule:evenodd"><path style="opacity:1" fill="#fefefe" d="M-.5-.5h200v200H-.5V-.5z"/><path style="opacity:1" fill="#63a6cd" d="M125.5 53.5v1a136.231 136.231 0 0 0-13 18c4.257-23.808-3.743-42.141-24-55 5.101-2.425 10.435-3.259 16-2.5 11.569 10.301 18.569 23.135 21 38.5z"/><path style="opacity:1" fill="#867ca3" d="M123.5 77.5a91.32 91.32 0 0 0 2-23v-1c9.298-9.657 20.298-16.824 33-21.5 2-.667 4-.667 6 0a80.563 80.563 0 0 0 9 8c-22.829 4.552-39.496 17.052-50 37.5z"/><path style="opacity:1" fill="#335184" d="M125.5 54.5a91.32 91.32 0 0 1-2 23l-4 11a85.323 85.323 0 0 1-13 18h-1a94.008 94.008 0 0 1 3-22 126.64 126.64 0 0 0 4-12 136.231 136.231 0 0 1 13-18z"/><path style="opacity:1" fill="#61a5cb" d="M108.5 84.5a94.008 94.008 0 0 0-3 22 26.002 26.002 0 0 1-7 5 93.853 93.853 0 0 0-22-2c14.004-4.009 24.671-12.342 32-25z"/><path style="opacity:1" fill="#847ba2" d="M119.5 88.5c-2.877 13.839-2.211 27.506 2 41-4.083-5.418-9.083-9.751-15-13v-10a85.323 85.323 0 0 0 13-18z"/><path style="opacity:1" fill="#62a6cd" d="M68.5 110.5a119.21 119.21 0 0 0-18 10c-8.795-1.652-16.628-5.319-23.5-11a64.247 64.247 0 0 1 0-16c11.045 12.438 24.879 18.105 41.5 17z"/><path style="opacity:1" fill="#eceef0" d="M105.5 106.5h1v9l-8-3v-1a26.002 26.002 0 0 0 7-5z"/><path style="opacity:1" fill="#2c6934" d="M76.5 109.5a93.853 93.853 0 0 1 22 2v1a195.797 195.797 0 0 1-17 8 76.254 76.254 0 0 0-12 2c-6.357.024-12.69-.31-19-1v-1a119.21 119.21 0 0 1 18-10 41.541 41.541 0 0 0 8-1z"/><path style="opacity:1" fill="#759f43" d="m98.5 112.5 8 3v1a132.762 132.762 0 0 0 5 19c-7.829-9.248-17.83-14.248-30-15a195.797 195.797 0 0 0 17-8z"/><path style="opacity:1" fill="#3d4e2b" d="M106.5 116.5c5.917 3.249 10.917 7.582 15 13l6 12a69.584 69.584 0 0 1 2 20 138.291 138.291 0 0 1-13-15 81.694 81.694 0 0 0-5-11 132.762 132.762 0 0 1-5-19z"/><path style="opacity:1" fill="#76a143" d="M50.5 121.5c6.31.69 12.643 1.024 19 1-13.24 6.093-21.074 16.426-23.5 31-3.843-3.689-6.676-8.022-8.5-13 2.404-7.723 6.737-14.056 13-19z"/><path style="opacity:1" fill="#867ca3" d="M127.5 141.5c8.398 12.226 19.398 21.393 33 27.5a39.12 39.12 0 0 1-11.5 6.5 86.8 86.8 0 0 1-19.5-13v-1a69.584 69.584 0 0 0-2-20z"/><path style="opacity:1" fill="#76a144" d="M116.5 146.5a138.291 138.291 0 0 0 13 15v1c-1.349 7.886-4.349 15.053-9 21.5-5 .667-10 .667-15 0 10.772-10.324 14.438-22.824 11-37.5z"/></svg>
